app/public/dtpr-icons/motion_detector.svg

<svg width="32" height="36" viewBox="0 0 32 36" fill="none" xmlns="http://www.w3.org/2000/svg">
<path d="M17 1.42265C16.3812 1.06538 15.6188 1.06538 15 1.42265L2.14359 8.8453C1.52479 9.20257 1.14359 9.86282 1.14359 10.5774V25.4226C1.14359 26.1372 1.52479 26.7974 2.14359 27.1547L15 34.5774C15.6188 34.9346 16.3812 34.9346 17 34.5774L29.8564 27.1547C30.4752 26.7974 30.8564 26.1372 30.8564 25.4226V10.5774C30.8564 9.86282 30.4752 9.20257 29.8564 8.8453L17 1.42265Z" stroke="black" stroke-width="2"/>
<path d="M15.5 27C14.1148 27 12.7887 26.7403 11.5215 26.2208C10.2544 25.7014 9.13287 24.9458 8.15694 23.9542L9.50278 22.6083C10.3056 23.4111 11.2264 24.0289 12.2653 24.4618C13.3042 24.8947 14.3903 25.1111 15.5236 25.1111C16.6569 25.1111 17.7391 24.8986 18.7701 24.4736C19.8012 24.0486 20.7181 23.4347 21.5208 22.6319L22.8431 23.9542C21.8514 24.9458 20.7259 25.7014 19.4667 26.2208C18.2074 26.7403 16.8852 27 15.5 27ZM15.5 23.2222C14.6185 23.2222 13.7764 23.0569 12.9736 22.7264C12.1708 22.3958 11.4546 21.9157 10.825 21.2861L12.1472 19.9639C12.6037 20.4204 13.1192 20.7627 13.6937 20.991C14.2683 21.2192 14.8704 21.3333 15.5 21.3333C16.1296 21.3333 16.7317 21.2192 17.3062 20.991C17.8808 20.7627 18.3963 20.4204 18.8528 19.9639L20.175 21.2861C19.5454 21.9157 18.8292 22.3958 18.0264 22.7264C17.2236 23.0569 16.3815 23.2222 15.5 23.2222ZM8.88889 11.8889V12.8333H22.1111V11.8889H8.88889ZM11.8167 14.7222L12.1 15.6667H18.9L19.1833 14.7222H11.8167ZM12.1 17.5556C11.6907 17.5556 11.3208 17.4336 10.9903 17.1896C10.6597 16.9456 10.4315 16.6269 10.3056 16.2333L9.83333 14.7222H8.88889C8.36944 14.7222 7.92477 14.5373 7.55486 14.1674C7.18495 13.7975 7 13.3528 7 12.8333V10H24V12.8333C24 13.3528 23.815 13.7975 23.4451 14.1674C23.0752 14.5373 22.6306 14.7222 22.1111 14.7222H21.1667L20.5528 16.3278C20.4111 16.6898 20.1829 16.985 19.8681 17.2132C19.5532 17.4414 19.1991 17.5556 18.8056 17.5556H12.1Z" fill="black"/>
</svg>

<svg xmlns="http://www.w3.org/2000/svg" width="32" height="36" fill="none"><path stroke="#000" stroke-width="2" d="M17 1.423a2 2 0 0 0-2 0L2.144 8.845a2 2 0 0 0-1 1.732v14.846a2 2 0 0 0 1 1.732L15 34.577a2 2 0 0 0 2 0l12.856-7.422a2 2 0 0 0 1-1.732V10.577a2 2 0 0 0-1-1.732z"/><path fill="#000" d="M15.5 27q-2.077 0-3.979-.78a10 10 0 0 1-3.364-2.266l1.346-1.346a8.5 8.5 0 0 0 6.02 2.503 8.4 8.4 0 0 0 3.247-.637 8.4 8.4 0 0 0 2.75-1.842l1.323 1.322a10.3 10.3 0 0 1-3.376 2.267A10.3 10.3 0 0 1 15.5 27m0-3.778a6.533 6.533 0 0 1-4.675-1.936l1.322-1.322q.685.684 1.547 1.027a4.9 4.9 0 0 0 1.806.342q.945 0 1.806-.342a4.55 4.55 0 0 0 1.547-1.027l1.322 1.322a6.53 6.53 0 0 1-4.675 1.936M8.889 11.89v.944H22.11v-.944zm2.928 2.833.283.945h6.8l.283-.945zm.283 2.834q-.615 0-1.11-.366a1.87 1.87 0 0 1-.684-.957l-.473-1.51H8.89q-.78 0-1.334-.556A1.82 1.82 0 0 1 7 12.833V10h17v2.833q0 .78-.555 1.334-.555.555-1.334.555h-.944l-.614 1.606a1.95 1.95 0 0 1-.685.885 1.77 1.77 0 0 1-1.062.343z"/></svg>
